svg/Account/account-alert-loop.svg

<svg xmlns="http://www.w3.org/2000/svg" width="24" height="24" viewBox="0 0 24 24">
	<g fill="none" stroke="currentColor" stroke-width="2" stroke-linecap="round">
		<path d="M5 21V20C5 17.7909 6.79086 16 9 16H13C15.2091 16 17 17.7909 17 20V21" stroke-dasharray="20" stroke-dashoffset="20">
			<animate attributeName="stroke-dashoffset" values="20;0" dur="0.4s" fill="freeze" />
		</path>
		<path d="M11 13C9.34315 13 8 11.6569 8 10C8 8.34315 9.34315 7 11 7C12.6569 7 14 8.34315 14 10C14 11.6569 12.6569 13 11 13Z" stroke-dasharray="20" stroke-dashoffset="20">
			<animate attributeName="stroke-dashoffset" values="20;0" begin="0.5s" dur="0.4s" fill="freeze" />
		</path>
		<path d="M20 3V7" stroke-dasharray="6" stroke-dashoffset="6">
			<animate attributeName="stroke-dashoffset" values="6;0" begin="1s" dur="0.2s" fill="freeze" />
			<animate attributeName="stroke-width" values="2;3;3;2;2" keyTimes="0;0.1;0.2;0.3;1" begin="1.5s" dur="3s" repeatCount="indefinite" />
		</path>
	</g>
	<circle cx="20" cy="11" r="1" fill="currentColor" fill-opacity="0">
		<animate attributeName="fill-opacity" values="0;1" begin="1.2s" dur="0.4s" fill="freeze" />
		<animate attributeName="r" values="1;2;2;1;1" keyTimes="0;0.1;0.2;0.3;1" begin="1.8s" dur="3s" repeatCount="indefinite" />
	</circle>
</svg>

<svg xmlns="http://www.w3.org/2000/svg" width="24" height="24" viewBox="0 0 24 24">
	<g fill="none" stroke="currentColor" stroke-width="2" stroke-linecap="round" stroke-linejoin="round">
		<path d="M5 21v-1c0 -2.21 1.79 -4 4 -4h4c2.21 0 4 1.79 4 4v1" stroke-dasharray="20" stroke-dashoffset="20">
			<animate attributeName="stroke-dashoffset" values="20;0" dur="0.2s" fill="freeze" />
		</path>
		<path d="M11 13c-1.66 0 -3 -1.34 -3 -3c0 -1.66 1.34 -3 3 -3c1.66 0 3 1.34 3 3c0 1.66 -1.34 3 -3 3Z" stroke-dasharray="20" stroke-dashoffset="20">
			<animate attributeName="stroke-dashoffset" values="20;0" begin="0.2s" dur="0.2s" fill="freeze" />
		</path>
		<path d="M20 3v4" stroke-dasharray="8" stroke-dashoffset="8" stroke-width="2">
			<animate attributeName="stroke-dashoffset" values="8;0" begin="0.5s" dur="0.2s" fill="freeze" />
			<animate attributeName="stroke-width" values="2;3;3;2;2" begin="1s" dur="3s" keyTimes="0;0.1;0.2;0.3;1" repeatCount="indefinite" />
		</path>
		<path d="M20 11v0.01" stroke-dasharray="4" stroke-dashoffset="4" stroke-width="2">
			<animate attributeName="stroke-dashoffset" values="4;0" begin="0.7s" dur="0.2s" fill="freeze" />
			<animate attributeName="stroke-width" values="2;3;3;2;2" begin="1.3s" dur="3s" keyTimes="0;0.1;0.2;0.3;1" repeatCount="indefinite" />
		</path>
	</g>
</svg>
